X: 17
M: 6/8
L: 1/8
K: G
|:\
|:\
ded dcB | a2c A2B | cdc cBA | g2B G2D |\
E2F G2A | Bcd G2D | EcB AGF | G3 [G3G,3] :|


